Origami/16x16/apps/zeal.svg

<svg width="16" height="16" version="1" xmlns="http://www.w3.org/2000/svg">
 <path d="m1.8854167 9.7142857e-8c-0.4905209 0-0.8854167 0.3568-0.8854167 0.8v14.400001c0 0.443199 0.3948958 0.799999 0.8854167 0.799999h2.1145833v-16z" style="fill:#4f4f4f"/>
 <path d="m4 9.7142857e-8v16h10.125c0.48475 0 0.875-0.3568 0.875-0.799999v-14.400001c0-0.4432-0.39025-0.8-0.875-0.8h-6.1341875z" style="fill:#c4411a"/>
 <path d="m6.5 3.5h6l-6 9h6" style="fill:none;stroke-linecap:round;stroke-linejoin:round;stroke:#ffffff"/>
</svg>

<svg xmlns="http://www.w3.org/2000/svg" width="16" height="16" version="1">
 <path style="fill:#4f4f4f" d="M 1.8854167,9.7142857e-8 C 1.3948958,9.7142857e-8 1,0.3568001 1,0.8000001 L 1,15.200001 C 1,15.6432 1.3948958,16 1.8854167,16 L 4,16 4,9.7142857e-8 Z"/>
 <path style="fill:#c4411a" d="M 4,9.7142857e-8 4,16 14.125,16 C 14.60975,16 15,15.6432 15,15.200001 L 15,0.8000001 C 15,0.3568001 14.60975,9.7142857e-8 14.125,9.7142857e-8 l -6.1341875,0 z"/>
 <path style="fill:none;stroke:#ffffff;stroke-linecap:round;stroke-linejoin:round" d="m 6.5,3.5 6,0 -6,9 6,0"/>
</svg>
